X: 1
T:Man of the House, The
N:Setting from, and transcribed by, Alan Ng
Z: id:ng-reels-40 transcribed by Alan Ng alanng1@email.com Jan. 26, 2001
R:reel
M:C|
K:EDor
D|E2BE GABG|E2BE ADFA|E2BE GABe|dBAG BEE:|\
z|efge fgaf|gfed edBd|efge fgaf|gfed Bee2|\
efge fgaf|gfed efga|bgaf gfed|edBA BEE|]**
